!! 00010] TT[TB
!! Eigene Aufnahme
!!!OTL: Ang naga erna Nang rag ar-na                            (Name)
!!!ARE: Neimeng
!! Ethnic Group: Menggu
!! MM, S. 720
!!!SCT: C0561
!!!YEM: Copyright 1995, estate of Helmut Schaffrath.
**kern
*ICvox
*Ivox
*M2/4
*k[]
*C:
{4a
4g
=1
4dd
8cc
8a
=2
8a
8g
4e
=3
4a
4dd}
=4
{8e
4a
8e
=5
2c}
=6
{4ee
4cc
=7
8.a
16cc
8a
8g
=8
8e
4d
8e
=9
8a
4g
8e}
=10
{8d
4e
8c
=11
2A}
==
!!!AGN: NN
!! Saenger: Chao Lun Batou, der das Buch nur zum Nachschlagen
!!    benutzte und ansonsten auswendig sang. Da er aus dem Osten der
!!    Neimeng kommt, kennt er nicht so viele Lieder des Westens.
!!    Alle Lieder wurden mit erkaelteter, halber Stimme in meinem
!!    Zimmer gesungen. FOTO VORHANDEN (DIAS)  31.3.87
!!    Vereinzelt Verzierungen. Variante. Phraseneinteilung folgt dem Gesang
!!!ONB: ESAC (Essen Associative Code) Database: CHINA
!!!AMT: simple duple
!!!AIN: vox
!!!EED: Helmut Schaffrath
!!!EEV: 1.0
*-
